Sources/FrostedUI/Resources/Icons.xcassets/mobilePhoneSize32.imageset/mobile-phone-size-32.svg

<svg
  width="32"
  height="32"
  viewBox="0 0 32 32"
  fill="none"
  xmlns="http://www.w3.org/2000/svg"
  data-fui-icon="true"
>
  <path
    d="M13 25.6667H19M11.6666 29.6667H20.3333C22.5425 29.6667 24.3333 27.8759 24.3333 25.6667V6.33333C24.3333 4.1242 22.5425 2.33333 20.3333 2.33333H11.6666C9.45749 2.33333 7.66663 4.1242 7.66663 6.33333V25.6667C7.66663 27.8759 9.45749 29.6667 11.6666 29.6667Z"
    stroke="currentColor"
    stroke-width="1.5"
    stroke-linecap="round"
    stroke-linejoin="round"
  />
</svg>

<svg xmlns="http://www.w3.org/2000/svg" width="32" height="32" fill="none" data-fui-icon="true" viewBox="0 0 32 32"><path stroke="currentColor" stroke-linecap="round" stroke-linejoin="round" stroke-width="1.5" d="M13 25.667h6m-7.333 4h8.666a4 4 0 0 0 4-4V6.333a4 4 0 0 0-4-4h-8.666a4 4 0 0 0-4 4v19.334a4 4 0 0 0 4 4"/></svg>
